assets/icons/traton/export_inactive.svg

<svg xmlns="http://www.w3.org/2000/svg" width="32" height="32" viewBox="0 0 32 32" fill="none">
<path d="M26.5876 28.0501L4 5.36475L5.41235 3.94629L28 26.6317L26.5876 28.0501ZM7.42218 13.4891L6.01372 12.0746L6.94424 11.1401L8.35269 12.5546L7.42218 13.4891ZM6.01372 30.0435L6.01372 20.0123L8.01131 20.0123L8.01131 28.0372L23.7676 28.0372L25.7652 30.0435L6.01372 30.0435ZM24.5811 13.4891L17.0004 5.88546L17.0004 12.7574L15.0029 10.7511L15.0029 5.88546L12.579 8.31586L11.1676 6.89837L16.0016 2.04346L25.9896 12.0746L24.5811 13.4891ZM15.0029 24.0248L15.0029 19.2345L17.0004 21.2407L17.0004 24.0248L15.0029 24.0248ZM24.2241 20.0123L25.9896 20.0123L25.9896 21.7854L24.2241 20.0123Z" fill="#001D21" />
</svg>

<svg xmlns="http://www.w3.org/2000/svg" fill="none" viewBox="0 0 32 32"><path fill="#001d21" d="M26.6 28 4 5.5l1.4-1.5L28 26.6zM7.4 13.6 6 12l1-1 1.4 1.5zM6 30V20h2v8h15.8l2 2zm18.6-16.5L17 5.9v6.9l-2-2v-5l-2.4 2.5L11.2 7 16 2l10 10zM15 24v-4.8l2 2V24zm9.2-4H26v1.8z"/></svg>
